X: 41237
T: Troy's Wedding
R: jig
M: 6/8
K: Amixolydian
|:Aaa Bac|aad aea|faa eaa|dac aBa|
Aaa Bac|aad aea|faa gec|ABc d3:|

